X:1
T:Title
%%score { 1 | 2 }
L:1/8
M:6/8
K:F
V:1 treble nm="Grand Piano"
V:2 bass 
V:1
 z3 z2[Q:1/4=87] [FA] | [Ec][EG][FA] [EB][Ed][Ec] | c3 A2 c | [Fd][Fd][Fd] [DB][Ec][Fd] | %4
[M:5/8] c-c- c3 |[M:1/8] A |[M:3/4] AG AB AG | c3 c2 d | e>d cG A=B |[M:5/8] [Ec]-[Ec]- [Ec]3 | %10
[M:3/16] [GB]3/2 |[M:3/4] A>A AA [GB][Ac] | [Ac]3 A2 c | GG GG FG |[M:5/8] A-A- A3 |[M:1/8] F | %16
[M:3/4] AA A[Gc] [Gc][Gc] | [Ff]3 [_EFc]2 [DFB] | [FA][FA] [CA][Ec] [EB][EG] |[M:5/8] F-F- F3 |] %20
V:2
 z3 z2 [F,C] | [C,C][C,B,][C,A,] [C,G,][C,B,][C,B,] | [F,A,F]3 [F,CF]2 [F,A,F] | %3
 [B,,B,][B,,B,][B,,B,] [B,,B,][B,,B,][B,,B,] |[M:5/8] [F,A,F]-[F,A,F]- [F,A,F]3 |[M:1/8] [F,CF] | %6
[M:3/4] [F,CF][F,CE][K:treble] [F,CF][CG] [CF][B,CE] | [A,CF]3 [A,CF]2 [_A,C^F] | %8
 [G,CG]>[G,F] [G,E][G,=B,F] [G,CF][G,DF] |[M:5/8][K:bass] [C,C]-[C,C]- [C,C]3 |[M:3/16] [C,C]3/2 | %11
[M:3/4] [F,CF]>[F,CF] [F,CF][F,CF] [F,C][K:treble][F,F] | [F,F]3 [F,CF]2 [A,CF] | %13
 [CE][CE] [CE][K:bass][B,CE] [A,C][G,CE] |[M:5/8] [F,CF]-[F,CF]- [F,CF]3 |[M:1/8] [F,A,] | %16
[M:3/4] [F,CF][F,CF] [F,CF][E,C] [E,C][E,C] | [D,A,]3 A,,2 B,, | %18
 [C,C][C,C] [C,F,][C,G,] [C,G,][C,B,] |[M:5/8] [F,A,]-[F,A,]- [F,A,]3 |] %20

